!!!COM: Macseal
!!!OTL: cats
!!!YEAR: 2014
**kern
*k[]
*C:
*
*
*M(4/4)
=1=1
4.FF C G c
16b
16cc
8g
8g
8a
8e
=2=2
8
8AA C G e
8AA C G e
8AA C G e
8AA C G e
4GG C G d
[8FF C G c
=3=3
4.]FF C G c
16b
16cc
8g
8g
8a
8e
=4=4
8
8AA C G e
8AA C G e
8AA C G e
8AA C G e
4C G g
[8FF C G c
=5=5
4.]FF C G c
16b
16cc
8g
8g
8a
8e
=6=6
8
8AA C G e
8AA C G e
8AA C G e
8AA C G e
4GG C G d
[8C G g
=7=7
1]C C G g
=8=8
8e
8f
8e
8f
8g
8e
8c
8FF C G c
*-
